X:115
T:Di Grine Kusine
O:klezmer
M:2/4
L:1/8
Q:1/4=120
K:Dm
V:1
DA, DF |AA GF |A3 ^G|A3 z|
"E7" c Bc B|c BA ^G|"Am" A3 ^G|A3 z
|:"F" [Ac][^GB][Ac][^GB]|[Ac][GB][FA][EG]|"Dm" [F4A4]|"Gm" [G3B3]z|
"A7" [A^c][A,A][A,A][A,A]|[FA][EG][DF][^CE]|1 "Dm" D2 "C" E2 |"Bb" F2 "A7" G2 :|2
"Dm" D4 |D3 z||
V:2          %2e stem
A4 |A4 |zD/D/ DF |A (3A/B/A/ GF |
^G4 |^G4 |AB cB |cB A^G  |:
AA3 |cB AG |F4 | (3D_EE  (3F^FG |
A4 |^c4 |1 d2 c2 |d2 e2 :|2
d2 A2 |d4 ||





